X:1
T:[ID 1-114b]
T:[ID 1-114b]
T:Bezeichnung standardisiert: Boure Tantz 26. In dieser Quelle auch als: Courant In dieser Quelle auch als: Boure
T:Urheber unbekannt Datum in der hier transkribierten schriftlichen Quelle: 1775
C:Urheber unbekannt
C:Datum in der hier transkribierten schriftlichen Quelle: 1775
L:1/8
M:2/4
K:D
V:1 treble 
V:1
 d2 c2 | BA/G/FE | DfCe | d2 c2 | DfCe | d2 c2 | AG/F/ E/F/G/E/ | F4 :: defg | cdef | defg | %11
 c2 A2 | defg | cdef | AG/F/ E/F/G/E/ | F4 :| %16

